X: 26640
T: MicMac Square Dance Tune
R: polka
M: 2/4
K: Edorian
|:E2 FA|Be Be/B/|AF DF|EF DF|
E2 FA|Be Be/B/|AF DF|E2 E2:|
|:e2 B/c/d|ed Be/B/|AF DF|EF DF|
e2 B/c/d|ed Be/B/|AF DF|E2 E2:|

